X: 38
T: The Rocky Road To Dublin
B: begged borrowed and stolen
B: ralph
B: nick
B: steve tunes
M:9/8
L:1/8
Q: 3/8=100
K:Am
V:1 
"Am"efe "G"d2B "Am"A2A|"Am"E2A A2A "G"Bcd|"Am"efe "G"d2B "Am"A2c|"G"B2A G2A Bcd|
"Am"efe "G"d2B "Am"A2A|"Am"E2A A2A "G"Bcd|"Am"efe "G"d2B "Am"A2c|"G"BAG G2A Bcd|
"Am"e2a a2^f "G"g3|"Am"e2a a2A "G"Bcd|"Am"e2a a2^f "G"g2e|"G"d2B G2A Bcd|
"Am"e2a a2^f "G"g2d|"Am"e2a a2A "G"Bcd|"Em"e^fg "Bm"fga "Em"gfe|"G"d2B G2A Bcd||
% abcbook-tune_id 62828a3ab86e5f297f004bb0


% abcbook-boost 0
% abcbook-tablature 
% abcbook-transpose 
% abcbook-lastupdated 1665491524796
% abcbook-soundfonts 
% abcbook-repeats 3
% abc-sessionorg_id 593
% abc-sessionorg_setting 0
% abc-sessionorg_setting_id undefined
% abc-boost 0
% Nottingham Music Database
% Titles One title
% Transcriptions Only 1 transcription
% Movement Has lots of stepwise movement
% Movement Has some stepwise movement
% Mode minor
% Key A
% Time_signature 9/8
% Text Has source text
% Has_accompaniment_chords Has chords

